archdroid-icon-theme/Archdroid-Indigo/actions/scalable/package-available-locked.svg

<?xml version="1.0" encoding="UTF-8" standalone="no"?>
<svg
   xmlns:dc="http://purl.org/dc/elements/1.1/"
   xmlns:cc="http://creativecommons.org/ns#"
   xmlns:rdf="http://www.w3.org/1999/02/22-rdf-syntax-ns#"
   xmlns:svg="http://www.w3.org/2000/svg"
   xmlns="http://www.w3.org/2000/svg"
   xmlns:sodipodi="http://sodipodi.sourceforge.net/DTD/sodipodi-0.dtd"
   xmlns:inkscape="http://www.inkscape.org/namespaces/inkscape"
   fill="#3F51B5"
   width="48"
   height="48"
   viewBox="0 0 48 48"
   id="svg2"
   version="1.1"
   inkscape:version="0.91 r13725"
   sodipodi:docname="package-available-locked.svg">
  <metadata
     id="metadata10">
    <rdf:RDF>
      <cc:Work
         rdf:about="">
        <dc:format>image/svg+xml</dc:format>
        <dc:type
           rdf:resource="http://purl.org/dc/dcmitype/StillImage" />
      </cc:Work>
    </rdf:RDF>
  </metadata>
  <defs
     id="defs8" />
  <sodipodi:namedview
     pagecolor="#ffffff"
     bordercolor="#666666"
     borderopacity="1"
     objecttolerance="10"
     gridtolerance="10"
     guidetolerance="10"
     inkscape:pageopacity="0"
     inkscape:pageshadow="2"
     inkscape:window-width="1366"
     inkscape:window-height="713"
     id="namedview6"
     showgrid="false"
     inkscape:snap-bbox="true"
     inkscape:bbox-nodes="true"
     inkscape:zoom="5.368001304915684"
     inkscape:cx="33.64998176056913"
     inkscape:cy="38.39694596067206"
     inkscape:window-x="0"
     inkscape:window-y="30"
     inkscape:window-maximized="1"
     inkscape:current-layer="svg2" />
  <path
     id="path4140"
     style="fill:#3F51B5"
     d="m 30.85714285714285,19.99999999999999 -1.14285714285714,0 0,-2.28571428571429 c 0,-3.15428571428571 -2.56000000000001,-5.71428571428571 -5.71428571428572,-5.71428571428571 -3.15428571428571,0 -5.71428571428571,2.56 -5.71428571428571,5.71428571428571 l 0,2.28571428571429 -1.14285714285714,0 c -1.26285714285713,0 -2.28571428571427,1.02285714285714 -2.28571428571427,2.28571428571428 l 0,11.42857142857144 C 14.85714285714287,34.97714285714285 15.88000000000001,36 17.14285714285714,36 l 13.71428571428571,0 C 32.12,36 33.14285714285713,34.97714285714284 33.14285714285713,33.71428571428571 l 0,-11.42857142857143 C 33.14285714285713,21.02285714285714 32.11999999999999,20 30.85714285714285,20 Z m -6.85714285714286,10.28571428571428 c -1.26285714285714,0 -2.28571428571428,-1.02285714285714 -2.28571428571428,-2.28571428571429 0,-1.26285714285714 1.02285714285714,-2.28571428571428 2.28571428571428,-2.28571428571428 1.26285714285714,0 2.28571428571429,1.02285714285714 2.28571428571429,2.28571428571428 0,1.26285714285715 -1.02285714285715,2.28571428571429 -2.2857142857143,2.28571428571429 z m 3.54285714285715,-10.28571428571428 -7.08571428571429,0 0,-2.28571428571429 c 0,-1.95428571428571 1.58857142857143,-3.54285714285714 3.54285714285714,-3.54285714285714 1.95428571428572,0 3.54285714285715,1.58857142857143 3.54285714285715,3.54285714285714 l 0,2.28571428571429 z M 38,10 38,38 10,38 10,10 38,10 M 38,6 10,6 C 7.79,6 6,7.79 6,10 l 0,28 c 0,2.21 1.79,4 4,4 l 28,0 c 2.21,0 4,-1.79 4,-4 L 42,10 C 42,7.79 40.21,6 38,6 Z" />
</svg>

<svg xmlns="http://www.w3.org/2000/svg" fill="#3F51B5" viewBox="0 0 48 48"><path d="m30.857 20h-1.143v-2.286c0-3.154-2.56-5.714-5.714-5.714-3.154 0-5.714 2.56-5.714 5.714v2.286h-1.143c-1.263 0-2.286 1.023-2.286 2.286v11.429c0 1.263 1.023 2.286 2.286 2.286h13.714c1.263 0 2.286-1.023 2.286-2.286v-11.429c0-1.263-1.023-2.286-2.286-2.286m-6.857 10.286c-1.263 0-2.286-1.023-2.286-2.286 0-1.263 1.023-2.286 2.286-2.286 1.263 0 2.286 1.023 2.286 2.286 0 1.263-1.023 2.286-2.286 2.286zm3.543-10.286h-7.086v-2.286c0-1.954 1.589-3.543 3.543-3.543 1.954 0 3.543 1.589 3.543 3.543v2.286m10.457-10v28h-28v-28h28m0-4h-28c-2.21 0-4 1.79-4 4v28c0 2.21 1.79 4 4 4h28c2.21 0 4-1.79 4-4v-28c0-2.21-1.79-4-4-4"/></svg>
